Catalina-light/apps/scalable/tor.svg

<?xml version="1.0" encoding="UTF-8" standalone="no"?>
<svg
   xmlns:dc="http://purl.org/dc/elements/1.1/"
   xmlns:cc="http://creativecommons.org/ns#"
   xmlns:rdf="http://www.w3.org/1999/02/22-rdf-syntax-ns#"
   xmlns:svg="http://www.w3.org/2000/svg"
   xmlns="http://www.w3.org/2000/svg"
   xmlns:xlink="http://www.w3.org/1999/xlink"
   xmlns:sodipodi="http://sodipodi.sourceforge.net/DTD/sodipodi-0.dtd"
   xmlns:inkscape="http://www.inkscape.org/namespaces/inkscape"
   height="128"
   viewBox="0 0 128 128"
   width="128"
   version="1.1"
   id="svg59"
   sodipodi:docname="tor.svg"
   inkscape:version="0.92.1 r15371">
  <metadata
     id="metadata65">
    <rdf:RDF>
      <cc:Work
         rdf:about="">
        <dc:format>image/svg+xml</dc:format>
        <dc:type
           rdf:resource="http://purl.org/dc/dcmitype/StillImage" />
        <dc:title></dc:title>
      </cc:Work>
    </rdf:RDF>
  </metadata>
  <defs
     id="defs63">
    <linearGradient
       inkscape:collect="always"
       id="linearGradient846">
      <stop
         style="stop-color:#a6b1fd;stop-opacity:1"
         offset="0"
         id="stop842" />
      <stop
         style="stop-color:#d95df5;stop-opacity:0.96078432"
         offset="1"
         id="stop844" />
    </linearGradient>
    <linearGradient
       id="b">
      <stop
         id="stop875"
         stop-color="#17c7e7"
         offset="0" />
      <stop
         id="stop877"
         stop-opacity="0"
         stop-color="#c054f2"
         offset="1" />
    </linearGradient>
    <linearGradient
       inkscape:collect="always"
       xlink:href="#linearGradient846"
       id="linearGradient848"
       x1="27.27117"
       y1="14.216588"
       x2="108.13528"
       y2="126.50993"
       gradientUnits="userSpaceOnUse"
       gradientTransform="matrix(0.92980789,0,0,0.92980789,1.3037481,-0.1961967)" />
  </defs>
  <sodipodi:namedview
     pagecolor="#ffffff"
     bordercolor="#666666"
     borderopacity="1"
     objecttolerance="10"
     gridtolerance="10"
     guidetolerance="10"
     inkscape:pageopacity="0"
     inkscape:pageshadow="2"
     inkscape:window-width="1920"
     inkscape:window-height="1023"
     id="namedview61"
     showgrid="false"
     inkscape:zoom="2.4444904"
     inkscape:cx="41.555744"
     inkscape:cy="77.341692"
     inkscape:window-x="0"
     inkscape:window-y="29"
     inkscape:window-maximized="1"
     inkscape:current-layer="svg59" />
  <linearGradient
     id="a">
    <stop
       offset="0"
       stop-color="#9760ef"
       id="stop2" />
    <stop
       offset="1"
       stop-color="#c054f2"
       stop-opacity="0"
       id="stop4" />
  </linearGradient>
  <linearGradient
     id="b-3">
    <stop
       offset="0"
       stop-color="#17c7e7"
       id="stop7" />
    <stop
       offset="1"
       stop-color="#c054f2"
       stop-opacity="0"
       id="stop9" />
  </linearGradient>
  <linearGradient
     id="c"
     gradientUnits="userSpaceOnUse"
     x1="62.044209"
     x2="66.816978"
     y1="5.831234"
     y2="47.14864">
    <stop
       offset="0"
       stop-color="#e83c2b"
       id="stop12" />
    <stop
       offset="1"
       stop-color="#c054f2"
       stop-opacity=".792157"
       id="stop14" />
  </linearGradient>
  <linearGradient
     id="d"
     gradientUnits="userSpaceOnUse"
     x1="88.225533"
     x2="38.18116"
     xlink:href="#b-3"
     y1="119.55636"
     y2="35.285225" />
  <linearGradient
     id="e"
     gradientUnits="userSpaceOnUse"
     x1="61.626202"
     x2="95.321602"
     y1="48.640057"
     y2="103.02198">
    <stop
       offset="0"
       stop-color="#f66456"
       id="stop18" />
    <stop
       offset="1"
       stop-color="#d9493e"
       stop-opacity="0"
       id="stop20" />
  </linearGradient>
  <linearGradient
     id="f"
     gradientUnits="userSpaceOnUse"
     x1="32.314991"
     x2="61.766811"
     xlink:href="#a"
     y1="92.483826"
     y2="57.318027" />
  <linearGradient
     id="g"
     gradientUnits="userSpaceOnUse"
     x1="96.531937"
     x2="61.766811"
     xlink:href="#b-3"
     y1="97.690598"
     y2="59.053619" />
  <linearGradient
     id="h"
     gradientUnits="userSpaceOnUse"
     x1="139.34325"
     x2="61.766811"
     xlink:href="#a"
     y1="-7.0235152"
     y2="59.053619" />
  <filter
     id="i"
     height="1.108812"
     width="1.139866"
     x="-0.069932997"
     y="-0.054405998"
     style="color-interpolation-filters:sRGB">
    <feGaussianBlur
       stdDeviation="1.9764485"
       id="feGaussianBlur26" />
  </filter>
  <path
     style="color:#000000;font-style:normal;font-variant:normal;font-weight:normal;font-stretch:normal;font-size:medium;line-height:normal;font-family:sans-serif;font-variant-ligatures:normal;font-variant-position:normal;font-variant-caps:normal;font-variant-numeric:normal;font-variant-alternates:normal;font-feature-settings:normal;text-indent:0;text-align:start;text-decoration:none;text-decoration-line:none;text-decoration-style:solid;text-decoration-color:#000000;letter-spacing:normal;word-spacing:normal;text-transform:none;writing-mode:lr-tb;direction:ltr;text-orientation:mixed;dominant-baseline:auto;baseline-shift:baseline;text-anchor:start;white-space:normal;shape-padding:0;clip-rule:nonzero;display:inline;overflow:visible;visibility:visible;opacity:1;isolation:auto;mix-blend-mode:normal;color-interpolation:sRGB;color-interpolation-filters:linearRGB;solid-color:#000000;solid-opacity:1;vector-effect:none;fill:url(#linearGradient848);fill-opacity:1;fill-rule:nonzero;stroke:none;stroke-width:5.57884741;stroke-linecap:butt;stroke-linejoin:miter;stroke-miterlimit:4;stroke-dasharray:none;stroke-dashoffset:0;stroke-opacity:1;color-rendering:auto;image-rendering:auto;shape-rendering:auto;text-rendering:auto;enable-background:accumulate"
     d="m 64.636014,1.8649985 c -34.383767,1e-7 -62.3189204,27.9333385 -62.3189205,62.3171045 -6e-7,34.383765 27.9351535,62.317107 62.3189205,62.317107 34.383765,0 62.317106,-27.933342 62.317106,-62.317107 0,-34.383767 -27.933341,-62.3171066 -62.317106,-62.3171045 z"
     id="circle45"
     inkscape:connector-curvature="0"
     sodipodi:nodetypes="sssss" />
  <path
     id="path4594"
     d="M 32.792969 32.339844 L 60.087891 68.732422 L 96.478516 96.025391 L 69.185547 59.634766 L 32.792969 32.339844 z M 64.634766 39.164062 A 25.018871 25.018871 0 0 0 51.71875 42.785156 L 58.349609 47.757812 A 17.590578 17.590578 0 0 1 64.634766 46.591797 A 17.590578 17.590578 0 0 1 82.226562 64.181641 A 17.590578 17.590578 0 0 1 81.048828 70.453125 L 86.029297 77.09375 A 25.018871 25.018871 0 0 0 89.654297 64.181641 A 25.018871 25.018871 0 0 0 64.634766 39.164062 z M 43.242188 51.269531 A 25.018871 25.018871 0 0 0 39.617188 64.181641 A 25.018871 25.018871 0 0 0 64.634766 89.201172 A 25.018871 25.018871 0 0 0 77.550781 85.580078 L 70.921875 80.607422 A 17.590578 17.590578 0 0 1 64.634766 81.773438 A 17.590578 17.590578 0 0 1 47.044922 64.181641 A 17.590578 17.590578 0 0 1 48.222656 57.910156 L 43.242188 51.269531 z "
     style="opacity:1;fill:none;fill-opacity:1;stroke:#000000;stroke-width:2;stroke-miterlimit:4;stroke-dasharray:none;stroke-opacity:0.0608365;paint-order:stroke markers fill" />
  <path
     style="opacity:1;fill:none;fill-opacity:1;stroke:#000000;stroke-width:3;stroke-miterlimit:4;stroke-dasharray:none;stroke-opacity:0.0608365;paint-order:stroke markers fill"
     d="M 32.792969 32.339844 L 60.087891 68.732422 L 96.478516 96.025391 L 69.185547 59.634766 L 32.792969 32.339844 z M 64.634766 39.164062 A 25.018871 25.018871 0 0 0 51.71875 42.785156 L 58.349609 47.757812 A 17.590578 17.590578 0 0 1 64.634766 46.591797 A 17.590578 17.590578 0 0 1 82.226562 64.181641 A 17.590578 17.590578 0 0 1 81.048828 70.453125 L 86.029297 77.09375 A 25.018871 25.018871 0 0 0 89.654297 64.181641 A 25.018871 25.018871 0 0 0 64.634766 39.164062 z M 43.242188 51.269531 A 25.018871 25.018871 0 0 0 39.617188 64.181641 A 25.018871 25.018871 0 0 0 64.634766 89.201172 A 25.018871 25.018871 0 0 0 77.550781 85.580078 L 70.921875 80.607422 A 17.590578 17.590578 0 0 1 64.634766 81.773438 A 17.590578 17.590578 0 0 1 47.044922 64.181641 A 17.590578 17.590578 0 0 1 48.222656 57.910156 L 43.242188 51.269531 z "
     id="path4596" />
  <path
     style="opacity:1;fill:none;fill-opacity:1;stroke:#000000;stroke-width:1;stroke-miterlimit:4;stroke-dasharray:none;stroke-opacity:0.0608365;paint-order:stroke markers fill"
     d="M 32.792969 32.339844 L 60.087891 68.732422 L 96.478516 96.025391 L 69.185547 59.634766 L 32.792969 32.339844 z M 64.634766 39.164062 A 25.018871 25.018871 0 0 0 51.71875 42.785156 L 58.349609 47.757812 A 17.590578 17.590578 0 0 1 64.634766 46.591797 A 17.590578 17.590578 0 0 1 82.226562 64.181641 A 17.590578 17.590578 0 0 1 81.048828 70.453125 L 86.029297 77.09375 A 25.018871 25.018871 0 0 0 89.654297 64.181641 A 25.018871 25.018871 0 0 0 64.634766 39.164062 z M 43.242188 51.269531 A 25.018871 25.018871 0 0 0 39.617188 64.181641 A 25.018871 25.018871 0 0 0 64.634766 89.201172 A 25.018871 25.018871 0 0 0 77.550781 85.580078 L 70.921875 80.607422 A 17.590578 17.590578 0 0 1 64.634766 81.773438 A 17.590578 17.590578 0 0 1 47.044922 64.181641 A 17.590578 17.590578 0 0 1 48.222656 57.910156 L 43.242188 51.269531 z "
     id="rect826-3" />
  <path
     style="opacity:1;fill:#ffffff;fill-opacity:1;stroke:none;stroke-width:1.8596158;stroke-linecap:round;stroke-linejoin:round;stroke-miterlimit:4;stroke-dasharray:none;stroke-dashoffset:0;stroke-opacity:1;paint-order:fill markers stroke"
     d="M 64.634766 8.8378906 C 34.069397 8.8379552 9.2910802 33.616272 9.2910156 64.181641 C 9.2910777 94.747717 34.070639 119.52633 64.636719 119.52539 C 95.202088 119.52532 119.98041 94.747011 119.98047 64.181641 C 119.98041 33.615561 95.200845 8.8369498 64.634766 8.8378906 z M 32.792969 32.339844 L 69.185547 59.634766 L 96.478516 96.025391 L 60.087891 68.732422 L 32.792969 32.339844 z M 64.634766 39.164062 A 25.018871 25.018871 0 0 1 89.654297 64.181641 A 25.018871 25.018871 0 0 1 86.029297 77.09375 L 81.048828 70.453125 A 17.590578 17.590578 0 0 0 82.226562 64.181641 A 17.590578 17.590578 0 0 0 64.634766 46.591797 A 17.590578 17.590578 0 0 0 58.349609 47.757812 L 51.71875 42.785156 A 25.018871 25.018871 0 0 1 64.634766 39.164062 z M 43.242188 51.269531 L 48.222656 57.910156 A 17.590578 17.590578 0 0 0 47.044922 64.181641 A 17.590578 17.590578 0 0 0 64.634766 81.773438 A 17.590578 17.590578 0 0 0 70.921875 80.607422 L 77.550781 85.580078 A 25.018871 25.018871 0 0 1 64.634766 89.201172 A 25.018871 25.018871 0 0 1 39.617188 64.181641 A 25.018871 25.018871 0 0 1 43.242188 51.269531 z "
     id="path898" />
</svg>

<svg width="128" height="128" version="1.1" viewBox="0 0 128 128" xmlns="http://www.w3.org/2000/svg">
<defs>
<linearGradient id="linearGradient848" x1="27.271" x2="108.14" y1="14.217" y2="126.51" gradientTransform="matrix(.92981 0 0 .92981 1.3037 -.1962)" gradientUnits="userSpaceOnUse"/>
</defs>
<filter x="-.069933" y="-.054406" width="1.1399" height="1.1088" color-interpolation-filters="sRGB">
<feGaussianBlur stdDeviation="1.9764485"/>
</filter>
<path d="m64.636 1.865c-34.384 1e-7 -62.319 27.933-62.319 62.317-6e-7 34.384 27.935 62.317 62.319 62.317 34.384 0 62.317-27.933 62.317-62.317 0-34.384-27.933-62.317-62.317-62.317z" color="#000000" color-rendering="auto" dominant-baseline="auto" fill="url(#linearGradient848)" image-rendering="auto" shape-rendering="auto" solid-color="#000000" style="font-feature-settings:normal;font-variant-alternates:normal;font-variant-caps:normal;font-variant-ligatures:normal;font-variant-numeric:normal;font-variant-position:normal;isolation:auto;mix-blend-mode:normal;shape-padding:0;text-decoration-color:#000000;text-decoration-line:none;text-decoration-style:solid;text-indent:0;text-orientation:mixed;text-transform:none;white-space:normal"/>
<path d="m32.793 32.34 27.295 36.393 36.391 27.293-27.293-36.391-36.393-27.295zm31.842 6.8242a25.019 25.019 0 0 0-12.916 3.6211l6.6309 4.9727a17.591 17.591 0 0 1 6.2852-1.166 17.591 17.591 0 0 1 17.592 17.59 17.591 17.591 0 0 1-1.1777 6.2715l4.9805 6.6406a25.019 25.019 0 0 0 3.625-12.912 25.019 25.019 0 0 0-25.02-25.018zm-21.393 12.105a25.019 25.019 0 0 0-3.625 12.912 25.019 25.019 0 0 0 25.018 25.02 25.019 25.019 0 0 0 12.916-3.6211l-6.6289-4.9727a17.591 17.591 0 0 1-6.2871 1.166 17.591 17.591 0 0 1-17.59-17.592 17.591 17.591 0 0 1 1.1777-6.2715l-4.9805-6.6406z" fill="none" stroke="#000" stroke-opacity=".060836" stroke-width="2" style="paint-order:stroke markers fill"/>
<path d="m32.793 32.34 27.295 36.393 36.391 27.293-27.293-36.391-36.393-27.295zm31.842 6.8242a25.019 25.019 0 0 0-12.916 3.6211l6.6309 4.9727a17.591 17.591 0 0 1 6.2852-1.166 17.591 17.591 0 0 1 17.592 17.59 17.591 17.591 0 0 1-1.1777 6.2715l4.9805 6.6406a25.019 25.019 0 0 0 3.625-12.912 25.019 25.019 0 0 0-25.02-25.018zm-21.393 12.105a25.019 25.019 0 0 0-3.625 12.912 25.019 25.019 0 0 0 25.018 25.02 25.019 25.019 0 0 0 12.916-3.6211l-6.6289-4.9727a17.591 17.591 0 0 1-6.2871 1.166 17.591 17.591 0 0 1-17.59-17.592 17.591 17.591 0 0 1 1.1777-6.2715l-4.9805-6.6406z" fill="none" stroke="#000" stroke-opacity=".060836" stroke-width="3" style="paint-order:stroke markers fill"/>
<path d="m32.793 32.34 27.295 36.393 36.391 27.293-27.293-36.391-36.393-27.295zm31.842 6.8242a25.019 25.019 0 0 0-12.916 3.6211l6.6309 4.9727a17.591 17.591 0 0 1 6.2852-1.166 17.591 17.591 0 0 1 17.592 17.59 17.591 17.591 0 0 1-1.1777 6.2715l4.9805 6.6406a25.019 25.019 0 0 0 3.625-12.912 25.019 25.019 0 0 0-25.02-25.018zm-21.393 12.105a25.019 25.019 0 0 0-3.625 12.912 25.019 25.019 0 0 0 25.018 25.02 25.019 25.019 0 0 0 12.916-3.6211l-6.6289-4.9727a17.591 17.591 0 0 1-6.2871 1.166 17.591 17.591 0 0 1-17.59-17.592 17.591 17.591 0 0 1 1.1777-6.2715l-4.9805-6.6406z" fill="none" stroke="#000" stroke-opacity=".060836" style="paint-order:stroke markers fill"/>
<path d="m64.635 8.8379c-30.565 6.46e-5 -55.344 24.778-55.344 55.344 6.21e-5 30.566 24.78 55.345 55.346 55.344 30.565-7e-5 55.344-24.778 55.344-55.344-6e-5 -30.566-24.78-55.345-55.346-55.344zm-31.842 23.502 36.393 27.295 27.293 36.391-36.391-27.293-27.295-36.393zm31.842 6.8242a25.019 25.019 0 0 1 25.02 25.018 25.019 25.019 0 0 1-3.625 12.912l-4.9805-6.6406a17.591 17.591 0 0 0 1.1777-6.2715 17.591 17.591 0 0 0-17.592-17.59 17.591 17.591 0 0 0-6.2852 1.166l-6.6309-4.9727a25.019 25.019 0 0 1 12.916-3.6211zm-21.393 12.105 4.9805 6.6406a17.591 17.591 0 0 0-1.1777 6.2715 17.591 17.591 0 0 0 17.59 17.592 17.591 17.591 0 0 0 6.2871-1.166l6.6289 4.9727a25.019 25.019 0 0 1-12.916 3.6211 25.019 25.019 0 0 1-25.018-25.02 25.019 25.019 0 0 1 3.625-12.912z" fill="#fff" style="paint-order:fill markers stroke"/>
</svg>
